!!!COA: Josquin des Prez
!!!CDT: ~1450-1521/08/27
!!!OTL@@FRA: L'homme arm&eacute;
!!!AGN: Chanson
!!!SCT: NJE 28.23
!!!SCA: New Josquin Edition 28.23
!!!voices: 4
**kern	**kern	**kern	**kern
*staff4	*staff3	*staff2	*staff1
*Ivox	*Ivox	*Ivox	*Ivox
*I"Bassus	*I"Tenor	*I"Altus	*I"Superius
*I'B	*I'T	*I'A	*I'S
*clefF4	*clefGv2	*clefGv2	*clefG2
*k[b-]	*k[b-]	*k[b-]	*k[b-]
*M3/1	*M3/1	*M3/1	*M3/1
*met(O)	*met(O)	*met(O)	*met(O)
=1-	=1-	=1-	=1-
!	!	!LO:TX:Z=10:t=Canon&colon; Et sic de singulis	!
0.r	0.r	1.G	0.r
.	.	1.c	.
=2	=2	=2	=2
1.G	0.r	1.B-	0.r
1.c	.	1.A	.
=3	=3	=3	=3
1.B-	1.G	2.G/	0.r
.	.	2.d\	.
1.A	1.c	2.e\	.
.	.	2.f\	.
=4	=4	=4	=4
1.G	1.B-	2.g\	1.g
.	.	2.d\	.
1.F	1.A	2.f\	1.cc
.	.	2.c\	.
=5	=5	=5	=5
2.G\	1.G	1.g	1.b-
2.E\	.	.	.
2.F\	1.d	1.f	1.a
2.D\	.	.	.
=6	=6	=6	=6
2.E-\	1.G	2.B-\	1.g
2.C/	.	2.c\	.
2.D\	1.d	2.A/	1.f
2.BB-/	.	2.B-\	.
=7	=7	=7	=7
2.B-\	1.d	2.G/	2.g/
2.G\	.	2.g\	2.b-\
2.A\	1.c	2.e\	1.a
2.F\	.	2.f\	.
=8	=8	=8	=8
2.G\	1.B-	2.d\	1.g
2.E\	.	2.e\	.
2.F\	1.A	2.c\	1.f
2.D\	.	2.d\	.
=9	=9	=9	=9
0.E-	1.G	2.B-\	0.g
.	.	2.G/	.
.	1.g	2.B-\	.
.	.	2.c\	.
=10	=10	=10	=10
1.D	1.f	2.d\	1.a
.	.	2.A/	.
1.D	1.f	2.B-\	2.d/
.	.	2.A/	2.a/
=11	=11	=11	=11
1.G	2.g\	1.B-	2.d/
.	2.d\	.	2.g/
1.B-	2.g\	2.G/	1.d
.	2.f\	2.d\	.
=12	=12	=12	=12
1.G	2.g\	1.B-	2.b-\
.	2.e\	.	2.g/
1.B-	2.d\	2.B-\	1.dd
.	2.g\	2.G/	.
=13	=13	=13	=13
2.A\	0.a	1.c	2.cc\
2.F\	.	.	2.a/
2.D\	.	2.d\	1.f
2.F\	.	2.A/	.
=14	=14	=14	=14
1.C	0.g	1.c	2.g/
.	.	.	2.e/
1.G	.	2.B-\	2.d/
.	.	2.G/	2.b-\
=15	=15	=15	=15
2.D\	0.f	2.d\	1.a
2.F\	.	2.D/	.
2.D\	.	2.A/	2.a/
2.BB-/	.	2.B-\	2.d/
=16	=16	=16	=16
1.C	0.e	2.G/	2.g/
.	.	1.c	2.g/
2.AA/	.	.	1.cc
2.C/	.	2.G/	.
=17	=17	=17	=17
2.GG/	[0.dl	1.G	1.b-
2.G\	.	.	.
2.F\	.	2.D/	2.a/
2.G\	.	2.B-\	2.g/
=18	=18	=18	=18
2.D\	0.d_	2.A/	2.a/
2.G\	.	2.G/	2.b-\
2.F\	.	2.D/	2.a/
2.G\	.	2.B-\	2.g/
=19	=19	=19	=19
0.Dl	0.d]	0.Al	0.fl
==	==	==	==
*-	*-	*-	*-
!!!RDF**kern: l=long note in original notation
!!!RDF**kern: i=editorial accidental
!!!ENC: Jesse Rodin; Victoria Chang 2011/08/09/
!!!END: 2011/08/09/
!!!EED: Jesse Rodin
!!!EEV: 2011/08/11/
!!attribution-level@Jos: 3 (tricky)
!!!ONB: Translated from MusicXML and edited on 2011/08/11/ by Craig Sapp
!!muse2ps:  C^@{COM}{/}@{COA}?\n@{SCT}^v90,90,90,150I150Q16
